X: 9373
T: Dancing Tailor, The
R: jig
M: 6/8
K: Dmajor
|:A/G/|FEF GFG|ABc dcd|Bcd efd|cdB ABG|
FEF GFG|ABc dcd|Bcd Adf|edc d2:|
|:A|dcd fed|cBc ecA|dcd fed|Bcd efg|a3 fed|
[1 Bcd ecA|GAB Adf|edc d2:|2 ged cBA|GAB Adf|edc d2||

